svg/u1f453.svg

<svg viewBox="0 0 128 128" xmlns="http://www.w3.org/2000/svg">
  <g>
    <g opacity="0.8">
      <path d="M52.44,53.27c-1.03-1.71-3.17-5.28-18.55-5.69c-10.54-0.36-16.68,0.93-18.81,3.97 c-0.93,1.46-1.85,5-0.95,13.57c1.56,14.33,8.76,14.71,17.89,15.18l0.69,0.04c0.99,0.05,1.92,0.08,2.8,0.08 c12.94,0,15.2-5.65,16.86-13.48C53.85,60.27,53.88,55.68,52.44,53.27z" fill="#90CAF9"/>
      <path d="M112.7,51.51c-2.1-3.01-8.24-4.29-18.78-3.93C78.53,48,76.39,51.56,75.36,53.27v0 c-1.44,2.41-1.42,7,0.08,13.64c1.67,7.85,3.92,13.49,16.86,13.49c0.88,0,1.82-0.03,2.8-0.08l0.69-0.04 c9.12-0.47,16.33-0.85,17.89-15.18C114.57,56.55,113.65,53.01,112.7,51.51z" fill="#90CAF9"/>
    </g>
    <path d="M123.8,47.84c0,0-1-1.7-19.03-3.41c-18.93-1.8-28.35,2-32.25,4.41c-0.7,0.3-1.9,0.6-3.31,0.5h-0.3 c-1.9-0.1-3.61-0.2-5.61-0.2h-0.1c-1.1,0-3.51,0.1-5.21,0.2c-0.8,0.1-1.5,0-2.1-0.2c-3.61-2.4-13.02-6.61-32.75-4.71 C5.1,46.14,4.1,47.84,4.1,47.84L4,54.65c0,0,2.7,0.8,4.41,2.9c1.7,2.1,2.5,14.12,5.41,19.73C18.22,86,39.96,83.8,39.96,83.8 s8.91,0.7,13.22-6.81c3.71-6.41,5.21-15.43,5.61-17.63c0.9-0.9,2.6-2,5.11-2.1c2.8,0,4.61,1.4,5.41,2.4 c0.4,2.7,1.9,11.22,5.51,17.33c4.31,7.51,13.22,6.81,13.22,6.81s21.74,2.2,26.14-6.51c2.8-5.61,3.61-17.63,5.41-19.73 c1.7-2.2,4.41-2.9,4.41-2.9L123.8,47.84z M51.38,66.71c-1.7,8.01-3.91,13.42-18.63,12.62c-9.52-0.5-16.13-0.5-17.63-14.32 c-0.9-8.61,0.1-11.82,0.8-12.92c0.7-1,3.21-4.01,17.93-3.51c14.72,0.4,16.83,3.71,17.73,5.21C52.48,55.29,53.18,58.7,51.38,66.71z M112.68,65.01c-1.5,13.82-8.11,13.82-17.63,14.32c-14.72,0.8-16.93-4.61-18.63-12.62c-1.8-8.01-1.1-11.42-0.2-12.92 c0.9-1.5,3.01-4.81,17.73-5.21c14.72-0.5,17.23,2.5,17.93,3.51C112.58,53.19,113.58,56.39,112.68,65.01z" fill="#804833"/>
    <path d="M26.82,52.22c4.33-0.84,5.79,1.26,5.37,3.14c-0.77,3.47-4.11,1.62-9,4.6 c-2.06,1.26-2.9,2.16-3.66,2.13c-0.73-0.03-1.36-0.78-1.01-2.2C19.15,57.31,20.2,53.5,26.82,52.22z" opacity="0.7" fill="#FFFFFF"/>
    <path d="M83.66,53.21c1.77-0.99,6.74-1.88,7.27,0.73c0.54,2.69-1.99,3.43-3.78,4.04 c-4.23,1.44-4.93,3.49-5.81,4.05c-0.59,0.37-2.33,1.21-2.14-1.34C79.42,57.45,80.48,55,83.66,53.21z" opacity="0.7" fill="#FFFFFF"/>
  </g>
</svg>

<svg viewBox="0 0 128 128" xmlns="http://www.w3.org/2000/svg">
  <defs/>
  <g opacity="0.8">
    <path d="M52.44,53.27 C51.41,51.56 49.27,47.99 33.89,47.58 C23.35,47.22 17.21,48.51 15.08,51.55 C14.15,53.01 13.23,56.55 14.13,65.12 C15.69,79.45 22.89,79.83 32.02,80.3 L32.71,80.34 C33.7,80.39 34.63,80.42 35.51,80.42 C48.45,80.42 50.71,74.77 52.37,66.94 C53.85,60.27 53.88,55.68 52.44,53.27 Z" fill="#90CAF9"/>
    <path d="M112.7,51.51 C110.6,48.5 104.46,47.22 93.92,47.58 C78.53,48 76.39,51.56 75.36,53.27 L75.36,53.27 C73.92,55.68 73.94,60.27 75.44,66.91 C77.11,74.76 79.36,80.4 92.3,80.4 C93.18,80.4 94.12,80.37 95.1,80.32 L95.79,80.28 C104.91,79.81 112.12,79.43 113.68,65.1 C114.57,56.55 113.65,53.01 112.7,51.51 Z" fill="#90CAF9"/>
  </g>
  <path d="M123.8,47.84 C123.8,47.84 122.8,46.14 104.77,44.43 C85.84,42.63 76.42,46.43 72.52,48.84 C71.82,49.14 70.62,49.44 69.21,49.34 L68.91,49.34 C67.01,49.24 65.3,49.14 63.3,49.14 L63.2,49.14 C62.1,49.14 59.69,49.24 57.99,49.34 C57.19,49.44 56.49,49.34 55.89,49.14 C52.28,46.74 42.87,42.53 23.14,44.43 C5.1,46.14 4.1,47.84 4.1,47.84 L4,54.65 C4,54.65 6.7,55.45 8.41,57.55 C10.11,59.65 10.91,71.67 13.82,77.28 C18.22,86 39.96,83.8 39.96,83.8 C39.96,83.8 48.87,84.5 53.18,76.99 C56.89,70.58 58.39,61.56 58.79,59.36 C59.69,58.46 61.39,57.36 63.9,57.26 C66.7,57.26 68.51,58.66 69.31,59.66 C69.71,62.36 71.21,70.88 74.82,76.99 C79.13,84.5 88.04,83.8 88.04,83.8 C88.04,83.8 109.78,86 114.18,77.29 C116.98,71.68 117.79,59.66 119.59,57.56 C121.29,55.36 124,54.66 124,54.66 L123.8,47.84 Z M51.38,66.71 C49.68,74.72 47.47,80.13 32.75,79.33 C23.23,78.83 16.62,78.83 15.12,65.01 C14.22,56.4 15.22,53.19 15.92,52.09 C16.62,51.09 19.13,48.08 33.85,48.58 C48.57,48.98 50.68,52.29 51.58,53.79 C52.48,55.29 53.18,58.7 51.38,66.71 Z M112.68,65.01 C111.18,78.83 104.57,78.83 95.05,79.33 C80.33,80.13 78.12,74.72 76.42,66.71 C74.62,58.7 75.32,55.29 76.22,53.79 C77.12,52.29 79.23,48.98 93.95,48.58 C108.67,48.08 111.18,51.08 111.88,52.09 C112.58,53.19 113.58,56.39 112.68,65.01 Z" fill="#804833"/>
  <path d="M26.82,52.22 C31.15,51.38 32.61,53.48 32.19,55.36 C31.42,58.83 28.08,56.98 23.19,59.96 C21.13,61.22 20.29,62.12 19.53,62.09 C18.8,62.06 18.17,61.31 18.52,59.89 C19.15,57.31 20.2,53.5 26.82,52.22 Z" fill="#FFFFFF" opacity="0.7"/>
  <path d="M83.66,53.21 C85.43,52.22 90.4,51.33 90.93,53.94 C91.47,56.63 88.94,57.37 87.15,57.98 C82.92,59.42 82.22,61.47 81.34,62.03 C80.75,62.4 79.01,63.24 79.2,60.69 C79.42,57.45 80.48,55 83.66,53.21 Z" fill="#FFFFFF" opacity="0.7"/>
</svg>
